X: 26544
T: Michel Ferry's
R: polka
M: 2/4
K: Adorian
|:A>B AG|EG cA|B/c/B/A/ GE|D/E/D/C/ B,A,|G,>A, B,D|
G,>A, B,D|1 GE ED|E2 FG:|2 CA, A,G,|A,2A,^g||
|:a>e ce|Ac ef|g2 g/f/g/a/|ga b/a/g|
[1 a>e ce|Ac ec|dB gB|cA A^g:|
[2 a2 a/b/a/g/|ag e/f/g/a/|ge dB|A>B AB||

